icon-themes/sifr_svg/res/odf_32_8.svg

<svg viewBox="0 0 32 32" xmlns="http://www.w3.org/2000/svg"><path d="m28-.00195313-8 .00195313c-.54701 0-.433161 0 .537109 1l7.462891 7.4707031c1.17188 1.14518 1 1.0683669 1-.4707031v-7.00195312c-.00006-.55226-.44774-.99994001-1-1.00000001zm-24 .00195313a1.0001 1.0001 0 0 0 -1 1v30a1.0001 1.0001 0 0 0 1 1h24a1.0001 1.0001 0 0 0 1-1v-19a1.0001 1.0001 0 0 0 -.292969-.707031l-11-11.00000025a1.0001 1.0001 0 0 0 -.707031-.29296875zm1 2h11.585938l10.414062 10.414062v17.585938h-22zm11 11c-.984051 0-1.699353.634603-2.259766 1.365234-.560412.730631-1.024167 1.659263-1.421875 2.708985-.362098.955734-.644244 2.02286-.86914 3.099609l-1.5292971-3.568359a1.0001 1.0001 0 0 0 -.9199219-.605469h-1a1.0001 1.0001 0 1 0 0 2h.3398438l2.7402342 6.394531a1.0001 1.0001 0 0 0 1.919922-.392578c.0049-1.938651.487519-4.366042 1.189453-6.21875.350967-.926354.761288-1.711708 1.136719-2.201172s.657879-.582031.673828-.582031h6a1.0001 1.0001 0 1 0 2 0v-1a1.0001 1.0001 0 0 0 -1-1zm1 4.992188a1.0001 1.0001 0 1 0 -.015625 2l.53125.003906 1.203125 1.503906-1.207031 1.507812h-.519531a1.0001 1.0001 0 1 0 0 2h1a1.0001 1.0001 0 0 0 .78125-.375l1.224609-1.533203 1.220703 1.525391a1.0001 1.0001 0 0 0 .78125.375h1a1.0001 1.0001 0 1 0 0-2h-.519531l-1.201172-1.501953 1.195312-1.494141.533203-.003906a1.0001 1.0001 0 1 0 -.015624-2l-1.007813.007812a1.0001 1.0001 0 0 0 -.773437.375l-1.210938 1.515626-1.21875-1.523438a1.0001 1.0001 0 0 0 -.773438-.375z" fill="#555753"/></svg>

<svg xmlns="http://www.w3.org/2000/svg" viewBox="0 0 32 32">
 <path
     style="fill:#555753"
     d="M 28 -0.001953125 L 20 0 C 19.45299 0 19.566839 0 20.537109 1 L 28 8.4707031 C 29.17188 9.6158831 29 9.53907 29 8 L 29 0.99804688 C 28.99994 0.44578688 28.55226 -0.001893125 28 -0.001953125 z M 4 0 A 1.0001 1.0001 0 0 0 3 1 L 3 31 A 1.0001 1.0001 0 0 0 4 32 L 28 32 A 1.0001 1.0001 0 0 0 29 31 L 29 12 A 1.0001 1.0001 0 0 0 28.707031 11.292969 L 17.707031 0.29296875 A 1.0001 1.0001 0 0 0 17 0 L 4 0 z M 5 2 L 16.585938 2 L 27 12.414062 L 27 30 L 5 30 L 5 2 z M 16 13 C 15.015949 13 14.300647 13.634603 13.740234 14.365234 C 13.179822 15.095865 12.716067 16.024497 12.318359 17.074219 C 11.956261 18.029953 11.674115 19.097079 11.449219 20.173828 L 9.9199219 16.605469 A 1.0001 1.0001 0 0 0 9 16 L 8 16 A 1.0001 1.0001 0 1 0 8 18 L 8.3398438 18 L 11.080078 24.394531 A 1.0001 1.0001 0 0 0 13 24.001953 C 13.0049 22.063302 13.487519 19.635911 14.189453 17.783203 C 14.54042 16.856849 14.950741 16.071495 15.326172 15.582031 C 15.701603 15.092567 15.984051 15 16 15 L 22 15 A 1.0001 1.0001 0 1 0 24 15 L 24 14 A 1.0001 1.0001 0 0 0 23 13 L 16 13 z M 17 17.992188 A 1.0001 1.0001 0 1 0 16.984375 19.992188 L 17.515625 19.996094 L 18.71875 21.5 L 17.511719 23.007812 L 16.992188 23.007812 A 1.0001 1.0001 0 1 0 16.992188 25.007812 L 17.992188 25.007812 A 1.0001 1.0001 0 0 0 18.773438 24.632812 L 19.998047 23.099609 L 21.21875 24.625 A 1.0001 1.0001 0 0 0 22 25 L 23 25 A 1.0001 1.0001 0 1 0 23 23 L 22.480469 23 L 21.279297 21.498047 L 22.474609 20.003906 L 23.007812 20 A 1.0001 1.0001 0 1 0 22.992188 18 L 21.984375 18.007812 A 1.0001 1.0001 0 0 0 21.210938 18.382812 L 20 19.898438 L 18.78125 18.375 A 1.0001 1.0001 0 0 0 18.007812 18 L 17 17.992188 z "
     />
 </svg>
